shader_type canvas_item;
uniform bool fade = false;

void fragment() {
	COLOR = vec4(1.0, 1.0, 1.0, 1.0);
}

//void light() {
//	// Called for every pixel for every light affecting the CanvasItem.
//	// Uncomment to replace the default light processing function with this one.
//}
